icons/steam-fill.svg

<svg xmlns="http://www.w3.org/2000/svg" width="24" height="24" fill="none"><g clip-path="url(#a)"><g><path fill="#121212" d="M12.004 2C6.75404 2 2.44804 6.05 2.04004 11.197L7.40004 13.413C7.85404 13.103 8.40204 12.921 8.99304 12.921C9.04604 12.921 9.09704 12.924 9.15004 12.926L11.534 9.474V9.425C11.534 7.345 13.224 5.655 15.304 5.655C17.383 5.655 19.074 7.347 19.074 9.427C19.074 11.507 17.382 13.198 15.304 13.198H15.217L11.82 15.624C11.82 15.667 11.823 15.712 11.823 15.757C11.823 17.319 10.561 18.587 8.99804 18.587C7.63604 18.587 6.48504 17.609 6.22304 16.314L2.38504 14.725C3.57304 18.922 7.42704 22 12.005 22C17.527 22 22.003 17.523 22.003 12C22.003 6.478 17.526 2 12.004 2ZM7.07804 16.667C7.29604 17.119 7.67304 17.499 8.17204 17.708C9.25304 18.158 10.5 17.645 10.949 16.563C11.169 16.038 11.169 15.463 10.953 14.938C10.738 14.413 10.328 14.004 9.80604 13.786C9.28604 13.569 8.73104 13.578 8.24104 13.761L9.51004 14.286C10.307 14.619 10.684 15.536 10.35 16.332C10.02 17.129 9.10304 17.507 8.30604 17.175L7.07804 16.667ZM17.818 9.422C17.818 8.037 16.69 6.91 15.305 6.91C13.918 6.91 12.793 8.037 12.793 9.422C12.793 10.81 13.918 11.935 15.305 11.935C16.691 11.935 17.817 10.81 17.817 9.422H17.818ZM15.31 7.53C16.35 7.53 17.198 8.375 17.198 9.418C17.198 10.461 16.351 11.306 15.31 11.306C14.266 11.306 13.422 10.461 13.422 9.418C13.422 8.375 14.267 7.53 15.31 7.53Z"/></g></g><defs><clipPath id="a"><rect width="24" height="24" fill="white"/></clipPath></defs></svg>

<svg width="24" height="24" fill="none" xmlns="http://www.w3.org/2000/svg"><g clip-path="url(#a)"><path d="M12.004 2c-5.25 0-9.556 4.05-9.964 9.197l5.36 2.216a2.815 2.815 0 0 1 1.593-.492c.053 0 .104.003.157.005l2.384-3.452v-.049c0-2.08 1.69-3.77 3.77-3.77a3.775 3.775 0 0 1 3.77 3.772 3.775 3.775 0 0 1-3.77 3.771h-.087l-3.397 2.426c0 .043.003.088.003.133a2.826 2.826 0 0 1-2.825 2.83 2.843 2.843 0 0 1-2.775-2.273l-3.838-1.589C3.573 18.922 7.427 22 12.005 22c5.522 0 9.998-4.477 9.998-10 0-5.522-4.477-10-9.999-10ZM7.078 16.667c.218.452.595.832 1.094 1.041a2.126 2.126 0 0 0 1.634-3.922 2.119 2.119 0 0 0-1.565-.025l1.269.525a1.563 1.563 0 0 1 .84 2.046 1.563 1.563 0 0 1-2.044.843l-1.228-.508Zm10.74-7.245a2.516 2.516 0 0 0-2.513-2.512 2.514 2.514 0 0 0 0 5.025 2.513 2.513 0 0 0 2.512-2.513h.001ZM15.31 7.53a1.889 1.889 0 1 1-.002 3.774 1.889 1.889 0 0 1 .002-3.774Z" /></g><defs><clipPath id="a"><path fill="#fff" d="M0 0h24v24H0z"/></clipPath></defs></svg>
